X:124
T:Orphan, The
T:An Dilleachdan
R:Slow Air
S:Simon Fraser Collection
N:No.11
O:Scottish
M:C
L:1/8
Q:1/4=80
K:C Minor
G|~c>d e>d c>B G2|e>e f>^f g>GG>=B|~c>de>d c>BG>a|g>f ed/2>=B/2 cCC:|
D|E>FG>=A B>_AG>=B|c>de>^f gGG z/G/8=F/8E/8D/8|E>FG>=A B>_AG z/a/|
g>f ed/>=B/ cCC z/D/|E>FG>=A B>_AG>=B|c>de>^f gGG z/ E/8D/8E/8=F/8|
GEDC e>db>_a|g>f ed/>=B/ cCC||

